CSETWebApi/CSETWeb_Api/CSETWeb_ApiCore/Diagram/src/main/webapp/img/lib/mscae/StorSimple.svg

<svg xmlns="http://www.w3.org/2000/svg" width="50.001" height="44.822"><path d="M44.352 20.06h-.784c.313-1.4.627-2.82.627-4.23C44.195 7.053 37.926 0 29.15 0 22.254 0 16.3 4.545 14.262 10.814c-1.097-.313-2.35-.627-3.604-.627C4.858 10.187 0 15.202 0 21.157c0 6.27 4.388 10.5 10.343 10.5h4.23v-2.664h11.9v5.328H38.24v-2.664h6.112c3.3 0 5.642-2.35 5.642-5.642.156-3.3-2.508-5.955-5.642-5.955zM26.33 26.33H14.575v-2.5H26.33v2.508zm0-5.172H14.575V18.65H26.33v2.508zm.156 15.828H38.24v2.508H26.486zm0 5.328H38.24v2.508H26.486z" fill="#59b4d9"/><path d="M19.594 13.802c1.2-.3 2.4-.3 3.5-.2C23.593 8.2 27.846 2.8 32.64.406a15.42 15.42 0 0 0-3.49-.405c-6.896 0-12.85 4.545-14.888 10.814-1.097-.313-2.35-.627-3.604-.627C4.858 10.187 0 15.202 0 21.157c0 6.27 4.388 10.5 10.343 10.5h4.212c-1.378-1.392-2.366-3.077-2.86-5.156-1.3-5.7 2.2-11.4 7.9-12.7zM32.656.396z" opacity=".2" fill="#fff"/></svg>

<?xml version="1.0" encoding="UTF-8" standalone="no"?>
<svg
   xmlns:dc="http://purl.org/dc/elements/1.1/"
   xmlns:cc="http://creativecommons.org/ns#"
   xmlns:rdf="http://www.w3.org/1999/02/22-rdf-syntax-ns#"
   xmlns:svg="http://www.w3.org/2000/svg"
   xmlns="http://www.w3.org/2000/svg"
   xmlns:sodipodi="http://sodipodi.sourceforge.net/DTD/sodipodi-0.dtd"
   xmlns:inkscape="http://www.inkscape.org/namespaces/inkscape"
   version="1.1"
   id="Layer_1"
   x="0px"
   y="0px"
   width="50.000523"
   height="44.821999"
   viewBox="0 0 50.000523 44.821999"
   enable-background="new 0 0 50 50"
   xml:space="preserve"
   inkscape:version="0.91 r13725"
   sodipodi:docname="Azure StorSimple_COLOR.svg"><metadata
     id="metadata19"><rdf:RDF><cc:Work
         rdf:about=""><dc:format>image/svg+xml</dc:format><dc:type
           rdf:resource="http://purl.org/dc/dcmitype/StillImage" /><dc:title></dc:title></cc:Work></rdf:RDF></metadata><defs
     id="defs17" /><sodipodi:namedview
     pagecolor="#ffffff"
     bordercolor="#666666"
     borderopacity="1"
     objecttolerance="10"
     gridtolerance="10"
     guidetolerance="10"
     inkscape:pageopacity="0"
     inkscape:pageshadow="2"
     inkscape:window-width="1920"
     inkscape:window-height="1018"
     id="namedview15"
     showgrid="false"
     fit-margin-top="0"
     fit-margin-left="0"
     fit-margin-right="0"
     fit-margin-bottom="0"
     inkscape:zoom="10.363697"
     inkscape:cx="24.805036"
     inkscape:cy="17.849512"
     inkscape:window-x="-8"
     inkscape:window-y="-8"
     inkscape:window-maximized="1"
     inkscape:current-layer="Layer_1" /><path
     d="M 44.352,20.06 C 44.039,20.06 43.882,20.06 43.568,20.06 43.881,18.65 44.195,17.239 44.195,15.829 44.195,7.053 37.926,0 29.15,0 22.254,0 16.299,4.545 14.262,10.814 13.165,10.501 11.911,10.187 10.658,10.187 4.858,10.187 0,15.202 0,21.157 0,27.426 4.388,31.657 10.343,31.657 L 14.574,31.657 14.574,28.993 26.485,28.993 26.485,34.321 38.24,34.321 38.24,31.657 44.352,31.657 C 47.643,31.657 49.994,29.306 49.994,26.015 50.15,22.724 47.486,20.06 44.352,20.06 Z M 26.329,26.329 14.575,26.329 14.575,23.821 26.329,23.821 26.329,26.329 Z M 26.329,21.157 14.575,21.157 14.575,18.649 26.329,18.649 26.329,21.157 Z"
     id="path3"
     inkscape:connector-curvature="0"
     style="fill:#59b4d9" /><rect
     x="26.486"
     y="36.986"
     width="11.754"
     height="2.5079999"
     id="rect5"
     style="fill:#59b4d9" /><rect
     x="26.486"
     y="42.313999"
     width="11.754"
     height="2.5079999"
     id="rect7"
     style="fill:#59b4d9" /><g
     id="g9"
     transform="translate(0,-2.589)"><path
       d="M 19.594,16.391 C 20.794,16.091 21.994,16.091 23.094,16.191 23.593,10.798 27.846,5.399 32.639,2.995 31.529,2.738 30.366,2.59 29.15,2.59 22.254,2.59 16.299,7.135 14.262,13.404 13.165,13.091 11.911,12.777 10.658,12.777 4.858,12.776 0,17.791 0,23.746 0,30.015 4.388,34.246 10.343,34.246 L 14.555,34.246 C 13.177,32.854 12.189,31.169 11.694,29.09 10.394,23.391 13.894,17.691 19.594,16.391 Z"
       id="path11"
       inkscape:connector-curvature="0"
       style="opacity:0.2;fill:#ffffff" /><path
       enable-background="new    "
       d="M 32.656,2.985 C 32.65,2.988 32.645,2.991 32.639,2.994 32.642,2.995 32.646,2.996 32.649,2.997 L 32.656,2.985 Z"
       id="path13"
       inkscape:connector-curvature="0"
       style="opacity:0.2;fill:#ffffff" /></g></svg>
